X:455
T: Auswandererlied (170a), S. 368
N: T0343
O: Luxemburg
S: Singendes Volk, Esch-Alzette, 1937 posth.]
N: Junglinster, Vater des Verfassers, um 1890;
N: (170b)- Straen, hhh Nikolaus Lersch, Liederheft, um 1850;
N: (170c)- Straen, hhh Johann Schmitt, 1855-1865
R: Abschieds- und Wanderlieder, Heimatlieder]
M: 4/4
L: 1/16
K: Bb
F4 | F6B2BAG2G3F | F8z4
F4 | F6B2BAG2G3F | F8z2
F2F2F2 | B4B4c4e4 | d8z2
c2B2A2 | F4c4B4A4 | B8z4

